public/icons/01.svg

<svg width="38" height="27" viewBox="0 0 38 27" fill="none" xmlns="http://www.w3.org/2000/svg">
<path d="M4.01137 26.7314L0.126368 22.8464V4.82144L4.01137 0.936444H16.9614L20.8464 4.82144V22.8464L16.9614 26.7314H4.01137ZM7.89637 21.7614H13.0764L14.3014 20.5364V7.13145L13.0764 5.90644H7.89637L6.67137 7.13145V20.5364L7.89637 21.7614ZM23.6598 26.7314V21.5514H27.1948V6.15145H24.0098V0.936444H33.7398V21.5514H37.2398V26.7314H23.6598Z" fill="url(#paint0_linear_1343_334)"/>
<defs>
<linearGradient id="paint0_linear_1343_334" x1="-2" y1="-5.76656" x2="29.5091" y2="23.7328" gradientUnits="userSpaceOnUse">
<stop stop-color="#E42BC8"/>
<stop offset="1" stop-color="#5670FD"/>
</linearGradient>
</defs>
</svg>

<svg width="38" height="27" fill="none" xmlns="http://www.w3.org/2000/svg"><path d="M4.011 26.731.126 22.846V4.821L4.011.936h12.95l3.885 3.885v18.025l-3.885 3.885H4.011zm3.885-4.97h5.18l1.225-1.225V7.131l-1.225-1.225h-5.18L6.671 7.131v13.405l1.225 1.225zm15.764 4.97v-5.18h3.535v-15.4H24.01V.936h9.73v20.615h3.5v5.18H23.66z" fill="url(#a)"/><defs><linearGradient id="a" x1="-2" y1="-5.767" x2="29.509" y2="23.733" gradientUnits="userSpaceOnUse"><stop stop-color="#E42BC8"/><stop offset="1" stop-color="#5670FD"/></linearGradient></defs></svg>
